material/.icons/material/headset.svg

<svg xmlns="http://www.w3.org/2000/svg" viewBox="0 0 24 24"><path d="M12 1c-5 0-9 4-9 9v7a3 3 0 003 3h3v-8H5v-2a7 7 0 017-7 7 7 0 017 7v2h-4v8h4v1h-7v2h6a3 3 0 003-3V10c0-5-4.03-9-9-9z"/></svg>

<?xml version="1.0" encoding="UTF-8"?><!DOCTYPE svg PUBLIC "-//W3C//DTD SVG 1.1//EN" "http://www.w3.org/Graphics/SVG/1.1/DTD/svg11.dtd"><svg xmlns="http://www.w3.org/2000/svg" xmlns:xlink="http://www.w3.org/1999/xlink" version="1.1" id="mdi-headset" width="24" height="24" viewBox="0 0 24 24"><path d="M12,1C7,1 3,5 3,10V17A3,3 0 0,0 6,20H9V12H5V10A7,7 0 0,1 12,3A7,7 0 0,1 19,10V12H15V20H19V21H12V23H18A3,3 0 0,0 21,20V10C21,5 16.97,1 12,1Z" /></svg>
